src/assets/tokens/SWAVE.svg

<svg version="1.1" id="Layer_1" xmlns="http://www.w3.org/2000/svg" xmlns:xlink="http://www.w3.org/1999/xlink" x="0px" y="0px"
	 width="100%" viewBox="0 0 200 200" enable-background="new 0 0 200 200" xml:space="preserve">
<path fill="#000102" opacity="1.000000" stroke="none" 
	d="
M201.000000,100.000000 
	C201.000000,133.648178 201.000000,167.296371 201.000000,200.972275 
	C134.388428,200.972275 67.776833,200.972275 1.082618,200.972275 
	C1.082618,134.425095 1.082618,67.850067 1.082618,1.137514 
	C67.666489,1.137514 134.333206,1.137514 201.000000,1.137514 
	C201.000000,32.764164 201.000000,64.413422 200.737350,96.842789 
	C200.022064,97.146194 199.452881,96.736710 199.133560,96.183105 
	C185.832733,73.124756 172.584152,50.036160 159.222168,27.013382 
	C158.020172,24.942356 156.103256,23.286263 154.518372,21.437471 
	C154.064575,21.654133 153.610779,21.870796 153.156967,22.087458 
	C152.836639,23.956432 152.244827,25.824373 152.237701,27.694540 
	C152.160965,47.832947 152.116364,67.972137 152.262848,88.109657 
	C152.276917,90.044510 153.291336,92.214546 154.448303,93.844635 
	C156.432358,96.640022 158.707092,99.301369 161.232224,101.611992 
	C162.635284,102.895859 164.802063,104.088463 166.606903,104.063026 
	C175.048553,103.944008 183.503662,103.609970 191.911438,102.869797 
	C195.001221,102.597778 197.973907,100.995491 201.000000,100.000000 
M44.361511,172.836182 
	C46.487881,176.906036 48.362530,181.140793 50.866829,184.963043 
	C51.842903,186.452774 54.232079,187.861633 55.985661,187.871475 
	C86.972382,188.045578 117.960487,188.032974 148.947662,187.905396 
	C150.710846,187.898148 153.311554,187.060150 154.092194,185.753998 
	C159.234833,177.149353 164.105453,168.373596 168.777847,159.502518 
	C169.937515,157.300781 168.988205,155.482193 165.951141,155.099915 
	C150.452835,153.149200 134.966858,151.096848 119.488861,148.989670 
	C106.487343,147.219635 93.504890,145.309998 80.509850,143.491837 
	C72.045486,142.307571 63.589958,141.012421 55.090565,140.169388 
	C53.520832,140.013687 50.568821,141.494385 50.276245,142.707367 
	C47.930420,152.432907 46.070240,162.275604 44.361511,172.836182 
M129.290421,107.752251 
	C136.857803,107.166084 144.433273,106.661606 151.984650,105.913757 
	C153.251480,105.788315 155.135635,104.826912 155.428528,103.857262 
	C155.742706,102.817169 154.786240,101.080574 153.910233,100.051483 
	C151.125763,96.780487 148.005371,93.795464 145.220322,90.524918 
	C132.146759,75.172279 118.959625,59.909504 106.232414,44.273293 
	C102.769287,40.018616 99.986816,40.731052 96.132423,42.873383 
	C89.236237,46.706383 82.218849,50.322193 75.235641,53.997482 
	C69.851776,56.831039 65.066559,60.063278 65.638847,67.218719 
	C65.677155,67.697662 65.494553,68.197601 65.394951,68.683739 
	C62.690395,81.884850 60.002579,95.089462 57.261665,108.283028 
	C56.651634,111.219467 56.904888,113.280350 60.698956,113.010071 
	C67.630066,112.516319 74.575005,112.205414 81.500977,111.652847 
	C97.115562,110.407089 112.722076,109.060371 129.290421,107.752251 
M90.316071,140.014099 
	C94.007225,140.675537 97.682381,141.449829 101.392761,141.975571 
	C109.854927,143.174637 118.334053,144.254181 126.806839,145.378113 
	C141.315613,147.302780 155.825836,149.216675 170.332932,151.153961 
	C172.927063,151.500381 174.437698,150.600769 175.802368,148.159088 
	C182.535156,136.112701 189.559860,124.229744 196.401077,112.243195 
	C197.041809,111.120552 197.119827,109.676750 197.459106,108.382065 
	C195.948624,108.033600 194.452652,107.560326 192.922348,107.382545 
	C191.973175,107.272270 190.976074,107.665726 189.993454,107.738945 
	C170.908325,109.161041 151.820129,110.542305 132.736954,111.989868 
	C120.253052,112.936844 107.780067,114.028961 95.294830,114.956863 
	C85.072472,115.716591 74.833450,116.253662 64.612511,117.030312 
	C55.340878,117.734840 55.359474,117.821136 53.531773,126.904587 
	C53.208363,128.511887 52.291042,130.140732 52.468143,131.664291 
	C52.617355,132.947952 53.816166,135.008591 54.792927,135.159927 
	C66.309288,136.944397 77.871361,138.433945 90.316071,140.014099 
M42.985188,153.437469 
	C45.992348,138.985321 49.009369,124.535217 52.003742,110.080414 
	C54.696560,97.081360 57.415176,84.087173 59.992321,71.065094 
	C60.409386,68.957703 60.149376,66.716331 60.202332,64.536888 
	C58.055580,64.991638 55.665028,64.986443 53.800976,65.974525 
	C39.952499,73.315193 25.956303,80.438972 12.586804,88.583473 
	C8.619230,91.000465 5.883836,96.180397 3.850664,100.668221 
	C3.037218,102.463730 5.371966,105.960045 6.741597,108.421844 
	C12.243509,118.311073 17.889736,128.120895 23.558462,137.916153 
	C27.963560,145.527954 32.433632,153.103607 37.009418,160.613312 
	C37.575024,161.541550 39.041641,162.551025 39.958057,162.438858 
	C40.711105,162.346695 41.520618,160.721893 41.852371,159.637833 
	C42.381207,157.909805 42.533913,156.066666 42.985188,153.437469 
M127.609489,20.841820 
	C128.153656,19.400423 128.697815,17.959026 129.437134,16.000713 
	C104.205811,16.000713 80.088684,15.926917 55.974228,16.146105 
	C54.120621,16.162952 51.652020,17.820728 50.561878,19.447828 
	C47.378635,24.198988 44.802082,29.352354 41.891582,34.291412 
	C35.746956,44.718693 29.445217,55.054756 23.412540,65.545898 
	C21.301611,69.216911 19.791191,73.233238 18.006542,77.091873 
	C18.517483,77.606247 19.028423,78.120621 19.539364,78.634995 
	C22.725708,77.224007 26.025970,76.022583 29.077606,74.363777 
	C39.320724,68.795769 49.435627,62.992058 59.673176,57.413586 
	C73.798241,49.716797 87.986931,42.136688 102.154846,34.518658 
	C110.404099,30.083067 118.666008,25.671024 127.609489,20.841820 
M147.832901,38.500175 
	C147.832901,31.415348 147.832901,24.330519 147.832901,15.460953 
	C142.638885,18.065996 138.627228,20.011320 134.676590,22.073544 
	C126.809425,26.180174 118.927673,30.263325 111.148476,34.532097 
	C107.203720,36.696747 107.183876,38.572601 110.085243,41.856228 
	C113.883064,46.154400 117.385391,50.712044 121.110497,55.076420 
	C128.126511,63.296448 135.162338,71.501114 142.323975,79.593521 
	C143.300980,80.697510 145.048218,81.119858 146.438843,81.857803 
	C146.905228,80.375557 147.764282,78.896484 147.776276,77.410576 
	C147.878220,64.774483 147.826065,52.137154 147.832901,38.500175 
z"/>
<path fill="#4061FC" opacity="1.000000" stroke="none" 
	d="
M201.000000,99.625000 
	C197.973907,100.995491 195.001221,102.597778 191.911438,102.869797 
	C183.503662,103.609970 175.048553,103.944008 166.606903,104.063026 
	C164.802063,104.088463 162.635284,102.895859 161.232224,101.611992 
	C158.707092,99.301369 156.432358,96.640022 154.448303,93.844635 
	C153.291336,92.214546 152.276917,90.044510 152.262848,88.109657 
	C152.116364,67.972137 152.160965,47.832947 152.237701,27.694540 
	C152.244827,25.824373 152.836639,23.956432 153.156967,22.087458 
	C153.610779,21.870796 154.064575,21.654133 154.518372,21.437471 
	C156.103256,23.286263 158.020172,24.942356 159.222168,27.013382 
	C172.584152,50.036160 185.832733,73.124756 199.133560,96.183105 
	C199.452881,96.736710 200.022064,97.146194 200.737350,97.311447 
	C201.000000,97.750000 201.000000,98.500000 201.000000,99.625000 
z"/>
<path fill="#4162FE" opacity="1.000000" stroke="none" 
	d="
M44.211487,172.459320 
	C46.070240,162.275604 47.930420,152.432907 50.276245,142.707367 
	C50.568821,141.494385 53.520832,140.013687 55.090565,140.169388 
	C63.589958,141.012421 72.045486,142.307571 80.509850,143.491837 
	C93.504890,145.309998 106.487343,147.219635 119.488861,148.989670 
	C134.966858,151.096848 150.452835,153.149200 165.951141,155.099915 
	C168.988205,155.482193 169.937515,157.300781 168.777847,159.502518 
	C164.105453,168.373596 159.234833,177.149353 154.092194,185.753998 
	C153.311554,187.060150 150.710846,187.898148 148.947662,187.905396 
	C117.960487,188.032974 86.972382,188.045578 55.985661,187.871475 
	C54.232079,187.861633 51.842903,186.452774 50.866829,184.963043 
	C48.362530,181.140793 46.487881,176.906036 44.211487,172.459320 
z"/>
<path fill="#4161FE" opacity="1.000000" stroke="none" 
	d="
M128.811157,107.753494 
	C112.722076,109.060371 97.115562,110.407089 81.500977,111.652847 
	C74.575005,112.205414 67.630066,112.516319 60.698956,113.010071 
	C56.904888,113.280350 56.651634,111.219467 57.261665,108.283028 
	C60.002579,95.089462 62.690395,81.884850 65.394951,68.683739 
	C65.494553,68.197601 65.677155,67.697662 65.638847,67.218719 
	C65.066559,60.063278 69.851776,56.831039 75.235641,53.997482 
	C82.218849,50.322193 89.236237,46.706383 96.132423,42.873383 
	C99.986816,40.731052 102.769287,40.018616 106.232414,44.273293 
	C118.959625,59.909504 132.146759,75.172279 145.220322,90.524918 
	C148.005371,93.795464 151.125763,96.780487 153.910233,100.051483 
	C154.786240,101.080574 155.742706,102.817169 155.428528,103.857262 
	C155.135635,104.826912 153.251480,105.788315 151.984650,105.913757 
	C144.433273,106.661606 136.857803,107.166084 128.811157,107.753494 
z"/>
<path fill="#4162FE" opacity="1.000000" stroke="none" 
	d="
M89.868736,140.007599 
	C77.871361,138.433945 66.309288,136.944397 54.792927,135.159927 
	C53.816166,135.008591 52.617355,132.947952 52.468143,131.664291 
	C52.291042,130.140732 53.208363,128.511887 53.531773,126.904587 
	C55.359474,117.821136 55.340878,117.734840 64.612511,117.030312 
	C74.833450,116.253662 85.072472,115.716591 95.294830,114.956863 
	C107.780067,114.028961 120.253052,112.936844 132.736954,111.989868 
	C151.820129,110.542305 170.908325,109.161041 189.993454,107.738945 
	C190.976074,107.665726 191.973175,107.272270 192.922348,107.382545 
	C194.452652,107.560326 195.948624,108.033600 197.459106,108.382065 
	C197.119827,109.676750 197.041809,111.120552 196.401077,112.243195 
	C189.559860,124.229744 182.535156,136.112701 175.802368,148.159088 
	C174.437698,150.600769 172.927063,151.500381 170.332932,151.153961 
	C155.825836,149.216675 141.315613,147.302780 126.806839,145.378113 
	C118.334053,144.254181 109.854927,143.174637 101.392761,141.975571 
	C97.682381,141.449829 94.007225,140.675537 89.868736,140.007599 
z"/>
<path fill="#4161FD" opacity="1.000000" stroke="none" 
	d="
M42.915428,153.854828 
	C42.533913,156.066666 42.381207,157.909805 41.852371,159.637833 
	C41.520618,160.721893 40.711105,162.346695 39.958057,162.438858 
	C39.041641,162.551025 37.575024,161.541550 37.009418,160.613312 
	C32.433632,153.103607 27.963560,145.527954 23.558462,137.916153 
	C17.889736,128.120895 12.243509,118.311073 6.741597,108.421844 
	C5.371966,105.960045 3.037218,102.463730 3.850664,100.668221 
	C5.883836,96.180397 8.619230,91.000465 12.586804,88.583473 
	C25.956303,80.438972 39.952499,73.315193 53.800976,65.974525 
	C55.665028,64.986443 58.055580,64.991638 60.202332,64.536888 
	C60.149376,66.716331 60.409386,68.957703 59.992321,71.065094 
	C57.415176,84.087173 54.696560,97.081360 52.003742,110.080414 
	C49.009369,124.535217 45.992348,138.985321 42.915428,153.854828 
z"/>
<path fill="#4161FD" opacity="1.000000" stroke="none" 
	d="
M127.265854,21.045105 
	C118.666008,25.671024 110.404099,30.083067 102.154846,34.518658 
	C87.986931,42.136688 73.798241,49.716797 59.673176,57.413586 
	C49.435627,62.992058 39.320724,68.795769 29.077606,74.363777 
	C26.025970,76.022583 22.725708,77.224007 19.539364,78.634995 
	C19.028423,78.120621 18.517483,77.606247 18.006542,77.091873 
	C19.791191,73.233238 21.301611,69.216911 23.412540,65.545898 
	C29.445217,55.054756 35.746956,44.718693 41.891582,34.291412 
	C44.802082,29.352354 47.378635,24.198988 50.561878,19.447828 
	C51.652020,17.820728 54.120621,16.162952 55.974228,16.146105 
	C80.088684,15.926917 104.205811,16.000713 129.437134,16.000713 
	C128.697815,17.959026 128.153656,19.400423 127.265854,21.045105 
z"/>
<path fill="#4060FB" opacity="1.000000" stroke="none" 
	d="
M147.826508,39.000183 
	C147.826065,52.137154 147.878220,64.774483 147.776276,77.410576 
	C147.764282,78.896484 146.905228,80.375557 146.438843,81.857803 
	C145.048218,81.119858 143.300980,80.697510 142.323975,79.593521 
	C135.162338,71.501114 128.126511,63.296448 121.110497,55.076420 
	C117.385391,50.712044 113.883064,46.154400 110.085243,41.856228 
	C107.183876,38.572601 107.203720,36.696747 111.148476,34.532097 
	C118.927673,30.263325 126.809425,26.180174 134.676590,22.073544 
	C138.627228,20.011320 142.638885,18.065996 147.832901,15.460953 
	C147.832901,24.330519 147.832901,31.415348 147.826508,39.000183 
z"/>
</svg>

<svg xmlns="http://www.w3.org/2000/svg" viewBox="0 0 200 200"><path fill="#000102" d="M201 100v100.972H1.083V1.138H201c0 31.626 0 63.275-.263 95.705-.715.303-1.284-.106-1.603-.66-13.301-23.058-26.55-46.147-39.912-69.17-1.202-2.07-3.119-3.727-4.704-5.576l-1.361.65c-.32 1.87-.912 3.737-.92 5.608-.076 20.138-.12 40.277.026 60.415.014 1.935 1.028 4.105 2.185 5.735 1.984 2.795 4.26 5.456 6.784 7.767 1.403 1.284 3.57 2.476 5.375 2.451 8.442-.119 16.897-.453 25.304-1.193 3.09-.272 6.063-1.875 9.089-2.87M44.362 172.836c2.126 4.07 4 8.305 6.505 12.127.976 1.49 3.365 2.899 5.119 2.908 30.986.175 61.974.162 92.962.034 1.763-.007 4.364-.845 5.144-2.151 5.143-8.605 10.013-17.38 14.686-26.251 1.16-2.202.21-4.02-2.827-4.403a4639.704 4639.704 0 0 1-46.462-6.11c-13.002-1.77-25.984-3.68-38.98-5.498-8.464-1.184-16.919-2.48-25.418-3.323-1.57-.155-4.522 1.325-4.815 2.538-2.346 9.726-4.206 19.569-5.914 30.13m84.928-65.085c7.568-.586 15.143-1.09 22.695-1.838 1.266-.126 3.15-1.087 3.444-2.057.314-1.04-.643-2.776-1.519-3.806-2.784-3.27-5.905-6.256-8.69-9.526-13.073-15.353-26.26-30.615-38.988-46.252-3.463-4.254-6.245-3.542-10.1-1.4-6.896 3.833-13.913 7.45-20.896 11.124-5.384 2.834-10.17 6.066-9.597 13.222.038.479-.144.979-.244 1.465-2.705 13.2-5.392 26.405-8.133 39.599-.61 2.936-.357 4.997 3.437 4.727 6.931-.494 13.876-.805 20.802-1.357 15.615-1.246 31.221-2.593 47.79-3.9m-38.975 32.261c3.691.662 7.366 1.436 11.077 1.962 8.462 1.199 16.941 2.278 25.414 3.402 14.509 1.925 29.019 3.839 43.526 5.776 2.594.346 4.105-.553 5.47-2.995 6.732-12.046 13.757-23.93 20.598-35.916.64-1.122.719-2.566 1.058-3.86-1.51-.35-3.006-.823-4.537-1-.949-.11-1.946.283-2.929.356-19.085 1.422-38.173 2.803-57.256 4.25-12.484.948-24.957 2.04-37.442 2.968-10.223.76-20.462 1.297-30.682 2.073-9.272.705-9.254.791-11.081 9.875-.324 1.607-1.241 3.236-1.064 4.76.15 1.283 1.348 3.344 2.325 3.495 11.516 1.784 23.078 3.274 35.523 4.854m-47.33 13.423c3.006-14.452 6.023-28.902 9.018-43.357 2.693-12.999 5.411-25.993 7.988-39.015.417-2.107.157-4.349.21-6.528-2.146.455-4.537.45-6.401 1.438-13.849 7.34-27.845 14.464-41.214 22.608C8.619 91 5.884 96.18 3.85 100.668c-.814 1.796 1.521 5.292 2.89 7.754 5.503 9.89 11.149 19.699 16.817 29.494a1166.66 1166.66 0 0 0 13.451 22.697c.566.929 2.033 1.938 2.95 1.826.752-.092 1.562-1.717 1.893-2.801.53-1.728.682-3.571 1.133-6.2M127.61 20.841L129.437 16c-25.231 0-49.348-.074-73.463.145-1.853.017-4.322 1.675-5.412 3.302-3.183 4.751-5.76 9.904-8.67 14.843-6.145 10.428-12.447 20.764-18.48 31.255-2.11 3.67-3.62 7.687-5.405 11.546l1.532 1.543c3.187-1.411 6.487-2.612 9.539-4.271 10.243-5.568 20.358-11.372 30.595-16.95 14.125-7.697 28.314-15.277 42.482-22.895 8.25-4.436 16.511-8.848 25.454-13.677M147.833 38.5V15.461c-5.194 2.605-9.206 4.55-13.156 6.613-7.868 4.106-15.75 8.19-23.529 12.458-3.944 2.165-3.964 4.04-1.063 7.324 3.798 4.298 7.3 8.856 11.025 13.22 7.017 8.22 14.052 16.425 21.214 24.518.977 1.104 2.724 1.526 4.115 2.264.466-1.482 1.325-2.962 1.337-4.447.102-12.637.05-25.274.057-38.91z"/><path fill="#4061FC" d="M201 99.625c-3.026 1.37-5.999 2.973-9.089 3.245-8.407.74-16.862 1.074-25.304 1.193-1.805.025-3.972-1.167-5.375-2.451-2.525-2.31-4.8-4.972-6.784-7.767-1.157-1.63-2.171-3.8-2.185-5.735-.147-20.138-.102-40.277-.025-60.415.007-1.87.599-3.739.919-5.608l1.361-.65c1.585 1.85 3.502 3.505 4.704 5.576 13.362 23.023 26.61 46.112 39.912 69.17.319.554.888.963 1.603 1.128.263.439.263 1.189.263 2.314z"/><path fill="#4162FE" d="M44.211 172.46c1.86-10.184 3.72-20.027 6.065-29.753.293-1.213 3.245-2.693 4.815-2.538 8.499.843 16.954 2.139 25.419 3.323 12.995 1.818 25.977 3.728 38.979 5.498a4639.704 4639.704 0 0 0 46.462 6.11c3.037.382 3.987 2.2 2.827 4.403-4.673 8.87-9.543 17.646-14.686 26.251-.78 1.306-3.381 2.144-5.144 2.151-30.988.128-61.976.14-92.962-.034-1.754-.01-4.143-1.418-5.12-2.908-2.503-3.822-4.378-8.057-6.655-12.504z"/><path fill="#4161FE" d="M128.811 107.753c-16.089 1.307-31.695 2.654-47.31 3.9-6.926.552-13.87.863-20.802 1.357-3.794.27-4.047-1.79-3.437-4.727 2.74-13.194 5.428-26.398 8.133-39.6.1-.485.282-.985.244-1.464-.572-7.156 4.213-10.388 9.597-13.222 6.983-3.675 14-7.29 20.896-11.124 3.855-2.142 6.637-2.854 10.1 1.4 12.728 15.637 25.915 30.9 38.988 46.252 2.785 3.27 5.906 6.255 8.69 9.526.876 1.03 1.833 2.766 1.519 3.806-.293.97-2.178 1.931-3.444 2.057-7.552.748-15.127 1.252-23.174 1.84z"/><path fill="#4162FE" d="M89.869 140.008c-11.998-1.574-23.56-3.064-35.076-4.848-.977-.151-2.176-2.212-2.325-3.496-.177-1.523.74-3.152 1.064-4.76 1.827-9.083 1.809-9.17 11.08-9.874 10.221-.776 20.46-1.313 30.683-2.073 12.485-.928 24.958-2.02 37.442-2.967 19.083-1.448 38.171-2.829 57.256-4.251.983-.073 1.98-.467 2.93-.356 1.53.177 3.026.65 4.536 1-.34 1.294-.417 2.738-1.058 3.86-6.841 11.987-13.866 23.87-20.599 35.916-1.364 2.442-2.875 3.341-5.47 2.995-14.506-1.937-29.016-3.851-43.525-5.776-8.473-1.124-16.952-2.203-25.414-3.402-3.71-.526-7.386-1.3-11.524-1.968z"/><path fill="#4161FD" d="M42.915 153.855c-.381 2.212-.534 4.055-1.063 5.783-.331 1.084-1.14 2.709-1.894 2.8-.916.113-2.383-.896-2.949-1.825a1166.66 1166.66 0 0 1-13.45-22.697c-5.67-9.795-11.315-19.605-16.817-29.494-1.37-2.462-3.705-5.958-2.891-7.754C5.884 96.18 8.619 91 12.587 88.583 25.957 80.44 39.952 73.315 53.8 65.975c1.864-.989 4.255-.983 6.401-1.438-.053 2.18.207 4.42-.21 6.528-2.577 13.022-5.295 26.016-7.988 39.015-2.995 14.455-6.012 28.905-9.089 43.775zm84.35-132.81c-8.599 4.626-16.86 9.038-25.11 13.474-14.168 7.618-28.357 15.198-42.482 22.895-10.237 5.578-20.352 11.382-30.595 16.95-3.052 1.659-6.352 2.86-9.539 4.271l-1.532-1.543c1.784-3.859 3.295-7.875 5.406-11.546 6.032-10.491 12.334-20.827 18.479-31.255 2.91-4.939 5.487-10.092 8.67-14.843 1.09-1.627 3.559-3.285 5.412-3.302 24.115-.22 48.232-.145 73.463-.145-.74 1.958-1.283 3.4-2.171 5.044z"/><path fill="#4060FB" d="M147.827 39c0 13.137.051 25.774-.05 38.41-.013 1.486-.872 2.966-1.338 4.448-1.39-.738-3.138-1.16-4.115-2.264-7.162-8.093-14.197-16.298-21.214-24.518-3.725-4.364-7.227-8.922-11.025-13.22-2.901-3.283-2.881-5.16 1.063-7.324 7.78-4.269 15.661-8.352 23.529-12.458 3.95-2.063 7.962-4.008 13.156-6.613 0 8.87 0 15.954-.006 23.54z"/></svg>
